X:1
T:The Rambler from Clare -- Jig
R:jig
B:Ryan's Mammoth Collection
N:88 454
Z:Contributed by Ray Davies,  ray:davies99.freeserve.co.uk
M:6/8
L:1/8
K:Am
u(A/B/)|\
cAB GAE | DEG GAB | cBA GED | cdd d2e |
cAB GAE | DEG GAB | cde dcB | cAA A2:|
|:uB|\
c3/2(d/e/f/) .g.e.f | gea ged | efg aba | gef ged |
c3/2(d/e/f/) .g.e.g | aba ged | cde dcB | cAA A2:|
